X: 5365
T: Buckley's Fancy
R: reel
M: 4/4
K: Gmajor
G2BG DGBG|cGcd edBA|G2BG DGBG|~A2AG FDEF|
G2BG DGBG|cGcd efga|beae gedB|GB (3AGF ~G2G2:|
~g2ga gede|g2bg ageg|~a2ab agef|~g2bg eBde|
~g2ga gede|g2bg agef|gbaf gedB|GB (3AGF ~G2G2:|

